X:2416
T:Moghrey Mie as Maynrys 
C:Coll. Mona Douglas -W Caine, Jurby 
C:Traditional
O:Isle of Man
Z:Kiaull Vannin 416 
L:1/8
M:6/8 
Q:140 
K:G 
G2G Bcd|GAG FED|G2A Bcd|g2g d3|g2g dBG|e2e dBG|c2c Bdc|BGA G3| 
e2e dBG|d>ed BAG|d2d efg|f2e d3|g2g dcB|e>de dBG|c2c Bdc|BGA G3|| 

